Newaita-dark/devices/48/modem.svg

<svg height="48pt" viewBox="0 0 48 48" width="48pt" xmlns="http://www.w3.org/2000/svg" xmlns:xlink="http://www.w3.org/1999/xlink"><linearGradient id="a" gradientTransform="matrix(.154702 0 0 .093759 -15.97575 20.158178)" gradientUnits="userSpaceOnUse" x1="254" x2="254" y1="233.5" y2="254.666672"><stop offset="0" stop-opacity=".27451"/><stop offset="1" stop-opacity="0"/></linearGradient><linearGradient id="b"><stop offset="0" stop-opacity=".313725"/><stop offset=".222222" stop-opacity=".27451"/><stop offset="1" stop-opacity="0"/></linearGradient><radialGradient id="c" cx="450.908936" cy="189.579361" gradientTransform="matrix(.00000026 -.117199 -.210958 -.00000015 79.188256 95.392999)" gradientUnits="userSpaceOnUse" r="21.166656" xlink:href="#b"/><radialGradient id="d" cx="450.908936" cy="189.579361" gradientTransform="matrix(-.00000026 .117199 .210958 .00000015 -32.550986 -11.291218)" gradientUnits="userSpaceOnUse" r="21.166656" xlink:href="#b"/><radialGradient id="e" cx="450.908936" cy="189.579361" gradientTransform="matrix(-.00000026 -.117199 .210958 -.00000015 -32.550986 95.392999)" gradientUnits="userSpaceOnUse" r="21.166656" xlink:href="#b"/><radialGradient id="f" cx="450.908936" cy="189.579361" gradientTransform="matrix(.00000026 .117199 -.210958 .00000015 79.188253 -11.291219)" gradientUnits="userSpaceOnUse" r="21.166656" xlink:href="#b"/><linearGradient id="g"><stop offset="0" stop-color="#424242"/><stop offset="1" stop-color="#616161"/></linearGradient><linearGradient id="h" gradientUnits="userSpaceOnUse" x1="179.916672" x2="179.916672" xlink:href="#g" y1="-84" y2="-168.666672"/><linearGradient id="i"><stop offset="0" stop-color="#bdbdbd"/><stop offset="1" stop-color="#e0e0e0"/></linearGradient><linearGradient id="j" gradientUnits="userSpaceOnUse" x1="235.41732" x2="235.41732" xlink:href="#i" y1="-84.000647" y2="-168.667319"/><linearGradient id="k" gradientTransform="matrix(.093759 0 0 -.093759 0 34.175138)" gradientUnits="userSpaceOnUse" x1="285.75" x2="285.75" xlink:href="#i" y1="-84" y2="233.5"/><linearGradient id="l" gradientTransform="matrix(.093759 0 0 -.093759 0 34.175137)" gradientUnits="userSpaceOnUse" x1="285.75" x2="285.75" xlink:href="#g" y1="-84" y2="233.5"/><linearGradient id="m"><stop offset="0" stop-color="#66bb6a"/><stop offset="1" stop-color="#81c784"/></linearGradient><linearGradient id="n" gradientUnits="userSpaceOnUse" x1="105.833328" x2="105.833328" xlink:href="#m" y1="180.583334" y2="148.833334"/><linearGradient id="o" gradientUnits="userSpaceOnUse" x1="169.333328" x2="169.333328" xlink:href="#m" y1="180.583334" y2="148.833334"/><linearGradient id="p" gradientUnits="userSpaceOnUse" x1="402.166656" x2="402.166656" y1="180.583334" y2="148.833334"><stop offset="0" stop-color="#ef5350"/><stop offset="1" stop-color="#e57373"/></linearGradient><linearGradient id="q" gradientUnits="userSpaceOnUse" x1="309.499353" x2="304.207697" xlink:href="#i" y1="-84" y2="-168.666656"/><path d="m6.945312 42.050781h32.746094v1.984375h-32.746094zm0 0" fill="url(#a)"/><path d="m39.691406 42.050781h3.96875v-1.984375h-3.96875zm0 0" fill="url(#c)"/><path d="m6.945312 42.050781h-3.96875v1.984375h3.96875zm0 0" fill="url(#d)"/><path d="m6.945312 42.050781h-3.96875v-1.984375h3.96875zm0 0" fill="url(#e)"/><path d="m39.691406 42.050781h3.96875v1.984375h-3.96875zm0 0" fill="url(#f)"/><path d="m108.406314-168.671091c0 15.998472 4.832872 27.372386 12.332156 34.705019 7.457621 7.374296 16.415099 10.707311 24.081034 14.24864 7.707597 3.499665 14.081988 6.999331 18.789872 13.165409 4.707884 6.207741 8.290875 15.748496 8.290875 33.121837h15.998472c0-19.664789-4.332919-33.246825-11.540564-42.787581-7.207645-9.499092-16.665076-14.290302-24.872625-18.039944-8.165887-3.749641-15.081893-6.707692-19.539801-11.082275-4.416245-4.374582-7.540946-10.249021-7.540946-23.331105zm0 0" fill="url(#h)" stroke="#212121" stroke-width="3" transform="matrix(.093759 0 0 .093759 0 20.158175)"/><path d="m163.901015-168.671091c0 15.998472 4.832872 27.372386 12.332156 34.705019 7.457621 7.374296 16.415099 10.707311 24.081033 14.24864 7.707598 3.499665 14.123652 6.957669 18.789873 13.165409 4.707883 6.207741 8.332537 15.748496 8.332537 33.121837h15.998472c0-19.664789-4.374582-33.246825-11.582227-42.787581-7.165982-9.499092-16.665075-14.290302-24.872625-18.039944-8.165886-3.749641-15.081893-6.707692-19.5398-11.082275-4.416245-4.374582-7.540947-10.249021-7.540947-23.331105zm0 0" fill="url(#j)" stroke="#212121" stroke-width="3" transform="matrix(.093759 0 0 .093759 0 20.158175)"/><path d="m5.953125 42.042969c-1.269531 0-2.210937-1.183594-1.925781-2.421875l5.957031-25.796875c.207031-.898438 1.003906-1.53125 1.921875-1.53125h23.816406c.917969 0 1.71875.632812 1.925782 1.53125l5.953124 25.796875c.285157 1.238281-.65625 2.421875-1.925781 2.421875zm0 0" fill="url(#k)"/><path d="m5.761719 32.117188-1.734375 7.503906c-.285156 1.238281.65625 2.421875 1.925781 2.421875h35.722656c1.269531 0 2.210938-1.183594 1.925781-2.421875l-1.734374-7.503906c-.0625.007812-.125.011718-.191407.011718h-35.722656c-.066406 0-.128906-.003906-.191406-.011718zm0 0" fill="url(#l)"/><path d="m5.953125 42.042969c-1.269531 0-2.210937-1.183594-1.925781-2.421875l.011718-.046875c.21875.839843.976563 1.484375 1.914063 1.484375h35.722656c.9375 0 1.699219-.644532 1.914063-1.484375l.011718.046875c.285157 1.238281-.65625 2.421875-1.925781 2.421875zm0 0" fill-opacity=".235294"/><path d="m4.042969 40.566406c-.078125-.296875-.089844-.617187-.015625-.945312l5.957031-25.796875c.207031-.898438 1.003906-1.53125 1.921875-1.53125h23.816406c.917969 0 1.71875.632812 1.925782 1.53125l5.953124 25.796875c.074219.328125.0625.648437-.015624.945312l-5.9375-25.742187c-.207032-.894531-1.007813-1.53125-1.925782-1.53125h-23.816406c-.917969 0-1.714844.636719-1.921875 1.53125zm0 0" fill="#fff" fill-opacity=".392157"/><g stroke-width="3" transform="matrix(.093759 0 0 .093759 0 20.158175)"><path d="m63.493937 233.415512c-13.540374 0-23.581082-12.623795-20.539706-25.830867l63.5356-275.140392c2.208122-9.582418 10.707311-16.331774 20.498042-16.331774h254.017409c9.790732 0 18.331583 6.749356 20.539706 16.331774l63.493936 275.140392c3.041377 13.207072-6.999331 25.830867-20.539705 25.830867zm0 0" fill="none" stroke="#212121" stroke-linecap="round" stroke-linejoin="round"/><path d="m105.823228 148.840255c11.707215 0 21.164645 7.082657 21.164645 15.873484 0 8.749165-9.45743 15.873484-21.164645 15.873484-11.665553 0-21.164646-7.124319-21.164646-15.873484 0-8.790827 9.499093-15.873484 21.164646-15.873484zm0 0" fill="url(#n)" stroke="#212121" stroke-linecap="round" stroke-linejoin="round"/><path d="m169.317164 148.840255c11.707216 0 21.164646 7.082657 21.164646 15.873484 0 8.749165-9.45743 15.873484-21.164646 15.873484-11.665552 0-21.164645-7.124319-21.164645-15.873484 0-8.790827 9.499093-15.873484 21.164645-15.873484zm0 0" fill="url(#o)" stroke="#212121" stroke-linecap="round" stroke-linejoin="round"/><path d="m402.169928 148.840255c11.707215 0 21.164646 7.082657 21.164646 15.873484 0 8.749165-9.457431 15.873484-21.164646 15.873484s-21.164646-7.124319-21.164646-15.873484c0-8.790827 9.457431-15.873484 21.164646-15.873484zm0 0" fill="url(#p)" stroke="#212121" stroke-linecap="round" stroke-linejoin="round"/><path d="m232.852764 148.840255c11.665552 0 21.164645 7.082657 21.164645 15.873484 0 8.749165-9.499093 15.873484-21.164645 15.873484-11.707216 0-21.206309-7.124319-21.206309-15.873484 0-8.790827 9.499093-15.873484 21.206309-15.873484zm0 0" fill="#ffa726" stroke="#212121" stroke-linecap="round" stroke-linejoin="round"/><path d="m232.727776-168.671091c0 13.290398 1.749833 23.539419 5.499474 31.538655 3.749642 8.040899 9.874058 13.707024 16.748401 16.623413 13.748687 5.749451 28.788918 2.374773 42.62093.083325s26.289156-3.541329 33.371813-.124988c3.582991 1.749833 6.332729 4.291257 8.749165 9.832394 2.416436 5.541138 4.124606 14.206977 4.124606 26.705783h15.998472c0-13.915337-1.791496-24.622648-5.457812-33.080174-3.666317-8.457526-9.582418-14.540278-16.415099-17.831631-13.748687-6.66603-29.080557-3.624653-42.995894-1.291543-13.957001 2.333111-26.705783 3.916293-33.78844.916579-3.541329-1.458194-6.124416-3.624654-8.457526-8.582513-2.333111-4.95786-3.999618-12.957096-3.999618-24.7893zm0 0" fill="url(#q)" stroke="#000"/></g></svg>

<?xml version="1.0" encoding="UTF-8"?>
<svg xmlns="http://www.w3.org/2000/svg" xmlns:xlink="http://www.w3.org/1999/xlink" width="48pt" height="48pt" viewBox="0 0 48 48" version="1.1">
<defs>
<linearGradient id="linear0" gradientUnits="userSpaceOnUse" x1="254" y1="233.5" x2="254" y2="254.666672" gradientTransform="matrix(0.154702,0,0,0.093759,-15.97575,20.158178)">
<stop offset="0" style="stop-color:rgb(0%,0%,0%);stop-opacity:0.27451;"/>
<stop offset="1" style="stop-color:rgb(0%,0%,0%);stop-opacity:0;"/>
</linearGradient>
<radialGradient id="radial0" gradientUnits="userSpaceOnUse" cx="450.908936" cy="189.579361" fx="450.908936" fy="189.579361" r="21.166656" gradientTransform="matrix(0.000000261256,-0.117199,-0.210958,-0.000000152308,79.188256,95.392999)">
<stop offset="0" style="stop-color:rgb(0%,0%,0%);stop-opacity:0.313725;"/>
<stop offset="0.222222" style="stop-color:rgb(0%,0%,0%);stop-opacity:0.27451;"/>
<stop offset="1" style="stop-color:rgb(0%,0%,0%);stop-opacity:0;"/>
</radialGradient>
<radialGradient id="radial1" gradientUnits="userSpaceOnUse" cx="450.908936" cy="189.579361" fx="450.908936" fy="189.579361" r="21.166656" gradientTransform="matrix(-0.000000261256,0.117199,0.210958,0.000000152308,-32.550986,-11.291218)">
<stop offset="0" style="stop-color:rgb(0%,0%,0%);stop-opacity:0.313725;"/>
<stop offset="0.222222" style="stop-color:rgb(0%,0%,0%);stop-opacity:0.27451;"/>
<stop offset="1" style="stop-color:rgb(0%,0%,0%);stop-opacity:0;"/>
</radialGradient>
<radialGradient id="radial2" gradientUnits="userSpaceOnUse" cx="450.908936" cy="189.579361" fx="450.908936" fy="189.579361" r="21.166656" gradientTransform="matrix(-0.000000261256,-0.117199,0.210958,-0.000000152308,-32.550986,95.392999)">
<stop offset="0" style="stop-color:rgb(0%,0%,0%);stop-opacity:0.313725;"/>
<stop offset="0.222222" style="stop-color:rgb(0%,0%,0%);stop-opacity:0.27451;"/>
<stop offset="1" style="stop-color:rgb(0%,0%,0%);stop-opacity:0;"/>
</radialGradient>
<radialGradient id="radial3" gradientUnits="userSpaceOnUse" cx="450.908936" cy="189.579361" fx="450.908936" fy="189.579361" r="21.166656" gradientTransform="matrix(0.000000261256,0.117199,-0.210958,0.000000152308,79.188253,-11.291219)">
<stop offset="0" style="stop-color:rgb(0%,0%,0%);stop-opacity:0.313725;"/>
<stop offset="0.222222" style="stop-color:rgb(0%,0%,0%);stop-opacity:0.27451;"/>
<stop offset="1" style="stop-color:rgb(0%,0%,0%);stop-opacity:0;"/>
</radialGradient>
<linearGradient id="linear1" gradientUnits="userSpaceOnUse" x1="179.916672" y1="-84" x2="179.916672" y2="-168.666672" gradientTransform="matrix(1,0,0,1,0,0)">
<stop offset="0" style="stop-color:rgb(25.882353%,25.882353%,25.882353%);stop-opacity:1;"/>
<stop offset="1" style="stop-color:rgb(38.039216%,38.039216%,38.039216%);stop-opacity:1;"/>
</linearGradient>
<linearGradient id="linear2" gradientUnits="userSpaceOnUse" x1="179.916672" y1="-84" x2="179.916672" y2="-168.666672" gradientTransform="matrix(1,0,0,1,55.500648,-0.000646667)">
<stop offset="0" style="stop-color:rgb(74.117647%,74.117647%,74.117647%);stop-opacity:1;"/>
<stop offset="1" style="stop-color:rgb(87.843137%,87.843137%,87.843137%);stop-opacity:1;"/>
</linearGradient>
<linearGradient id="linear3" gradientUnits="userSpaceOnUse" x1="285.75" y1="-84" x2="285.75" y2="233.5" gradientTransform="matrix(0.093759,0,0,-0.093759,0,34.175138)">
<stop offset="0" style="stop-color:rgb(74.117647%,74.117647%,74.117647%);stop-opacity:1;"/>
<stop offset="1" style="stop-color:rgb(87.843137%,87.843137%,87.843137%);stop-opacity:1;"/>
</linearGradient>
<linearGradient id="linear4" gradientUnits="userSpaceOnUse" x1="285.75" y1="-84" x2="285.75" y2="233.5" gradientTransform="matrix(0.093759,0,0,-0.093759,0,34.175137)">
<stop offset="0" style="stop-color:rgb(25.882353%,25.882353%,25.882353%);stop-opacity:1;"/>
<stop offset="1" style="stop-color:rgb(38.039216%,38.039216%,38.039216%);stop-opacity:1;"/>
</linearGradient>
<linearGradient id="linear5" gradientUnits="userSpaceOnUse" x1="116.416656" y1="191.166672" x2="116.416656" y2="159.416672" gradientTransform="matrix(1,0,0,1,-10.583328,-10.583338)">
<stop offset="0" style="stop-color:rgb(40%,73.333333%,41.568627%);stop-opacity:1;"/>
<stop offset="1" style="stop-color:rgb(50.588235%,78.039216%,51.764706%);stop-opacity:1;"/>
</linearGradient>
<linearGradient id="linear6" gradientUnits="userSpaceOnUse" x1="116.416656" y1="191.166672" x2="116.416656" y2="159.416672" gradientTransform="matrix(1,0,0,1,52.916672,-10.583338)">
<stop offset="0" style="stop-color:rgb(40%,73.333333%,41.568627%);stop-opacity:1;"/>
<stop offset="1" style="stop-color:rgb(50.588235%,78.039216%,51.764706%);stop-opacity:1;"/>
</linearGradient>
<linearGradient id="linear7" gradientUnits="userSpaceOnUse" x1="116.416656" y1="191.166672" x2="116.416656" y2="159.416672" gradientTransform="matrix(1,0,0,1,285.75,-10.583338)">
<stop offset="0" style="stop-color:rgb(93.72549%,32.54902%,31.372549%);stop-opacity:1;"/>
<stop offset="1" style="stop-color:rgb(89.803922%,45.098039%,45.098039%);stop-opacity:1;"/>
</linearGradient>
<linearGradient id="linear8" gradientUnits="userSpaceOnUse" x1="285.75" y1="-84" x2="280.458344" y2="-168.666656" gradientTransform="matrix(1,0,0,1,23.749353,0)">
<stop offset="0" style="stop-color:rgb(74.117647%,74.117647%,74.117647%);stop-opacity:1;"/>
<stop offset="1" style="stop-color:rgb(87.843137%,87.843137%,87.843137%);stop-opacity:1;"/>
</linearGradient>
</defs>
<g id="surface1">
<path style=" stroke:none;fill-rule:nonzero;fill:url(#linear0);" d="M 6.945312 42.050781 L 39.691406 42.050781 L 39.691406 44.035156 L 6.945312 44.035156 Z M 6.945312 42.050781 "/>
<path style=" stroke:none;fill-rule:nonzero;fill:url(#radial0);" d="M 39.691406 42.050781 L 43.660156 42.050781 L 43.660156 40.066406 L 39.691406 40.066406 Z M 39.691406 42.050781 "/>
<path style=" stroke:none;fill-rule:nonzero;fill:url(#radial1);" d="M 6.945312 42.050781 L 2.976562 42.050781 L 2.976562 44.035156 L 6.945312 44.035156 Z M 6.945312 42.050781 "/>
<path style=" stroke:none;fill-rule:nonzero;fill:url(#radial2);" d="M 6.945312 42.050781 L 2.976562 42.050781 L 2.976562 40.066406 L 6.945312 40.066406 Z M 6.945312 42.050781 "/>
<path style=" stroke:none;fill-rule:nonzero;fill:url(#radial3);" d="M 39.691406 42.050781 L 43.660156 42.050781 L 43.660156 44.035156 L 39.691406 44.035156 Z M 39.691406 42.050781 "/>
<path style="fill-rule:nonzero;fill:url(#linear1);stroke-width:3;stroke-linecap:butt;stroke-linejoin:miter;stroke:rgb(12.941177%,12.941177%,12.941177%);stroke-opacity:1;stroke-miterlimit:4;" d="M 108.406314 -168.671091 C 108.406314 -152.672619 113.239186 -141.298705 120.73847 -133.966072 C 128.196091 -126.591776 137.153569 -123.258761 144.819504 -119.717432 C 152.527101 -116.217767 158.901492 -112.718101 163.609376 -106.552023 C 168.31726 -100.344282 171.900251 -90.803527 171.900251 -73.430186 L 187.898723 -73.430186 C 187.898723 -93.094975 183.565804 -106.677011 176.358159 -116.217767 C 169.150514 -125.716859 159.693083 -130.508069 151.485534 -134.257711 C 143.319647 -138.007352 136.403641 -140.965403 131.945733 -145.339986 C 127.529488 -149.714568 124.404787 -155.589007 124.404787 -168.671091 Z M 108.406314 -168.671091 " transform="matrix(0.093759,0,0,0.093759,0,20.158175)"/>
<path style="fill-rule:nonzero;fill:url(#linear2);stroke-width:3;stroke-linecap:butt;stroke-linejoin:miter;stroke:rgb(12.941177%,12.941177%,12.941177%);stroke-opacity:1;stroke-miterlimit:4;" d="M 163.901015 -168.671091 C 163.901015 -152.672619 168.733887 -141.298705 176.233171 -133.966072 C 183.690792 -126.591776 192.64827 -123.258761 200.314204 -119.717432 C 208.021802 -116.217767 214.437856 -112.759763 219.104077 -106.552023 C 223.81196 -100.344282 227.436614 -90.803527 227.436614 -73.430186 L 243.435086 -73.430186 C 243.435086 -93.094975 239.060504 -106.677011 231.852859 -116.217767 C 224.686877 -125.716859 215.187784 -130.508069 206.980234 -134.257711 C 198.814348 -138.007352 191.898341 -140.965403 187.440434 -145.339986 C 183.024189 -149.714568 179.899487 -155.589007 179.899487 -168.671091 Z M 163.901015 -168.671091 " transform="matrix(0.093759,0,0,0.093759,0,20.158175)"/>
<path style=" stroke:none;fill-rule:nonzero;fill:url(#linear3);" d="M 5.953125 42.042969 C 4.683594 42.042969 3.742188 40.859375 4.027344 39.621094 L 9.984375 13.824219 C 10.191406 12.925781 10.988281 12.292969 11.90625 12.292969 L 35.722656 12.292969 C 36.640625 12.292969 37.441406 12.925781 37.648438 13.824219 L 43.601562 39.621094 C 43.886719 40.859375 42.945312 42.042969 41.675781 42.042969 Z M 5.953125 42.042969 "/>
<path style=" stroke:none;fill-rule:nonzero;fill:url(#linear4);" d="M 5.761719 32.117188 L 4.027344 39.621094 C 3.742188 40.859375 4.683594 42.042969 5.953125 42.042969 L 41.675781 42.042969 C 42.945312 42.042969 43.886719 40.859375 43.601562 39.621094 L 41.867188 32.117188 C 41.804688 32.125 41.742188 32.128906 41.675781 32.128906 L 5.953125 32.128906 C 5.886719 32.128906 5.824219 32.125 5.761719 32.117188 Z M 5.761719 32.117188 "/>
<path style=" stroke:none;fill-rule:nonzero;fill:rgb(0%,0%,0%);fill-opacity:0.235294;" d="M 5.953125 42.042969 C 4.683594 42.042969 3.742188 40.859375 4.027344 39.621094 L 4.039062 39.574219 C 4.257812 40.414062 5.015625 41.058594 5.953125 41.058594 L 41.675781 41.058594 C 42.613281 41.058594 43.375 40.414062 43.589844 39.574219 L 43.601562 39.621094 C 43.886719 40.859375 42.945312 42.042969 41.675781 42.042969 Z M 5.953125 42.042969 "/>
<path style=" stroke:none;fill-rule:nonzero;fill:rgb(100%,100%,100%);fill-opacity:0.392157;" d="M 4.042969 40.566406 C 3.964844 40.269531 3.953125 39.949219 4.027344 39.621094 L 9.984375 13.824219 C 10.191406 12.925781 10.988281 12.292969 11.90625 12.292969 L 35.722656 12.292969 C 36.640625 12.292969 37.441406 12.925781 37.648438 13.824219 L 43.601562 39.621094 C 43.675781 39.949219 43.664062 40.269531 43.585938 40.566406 L 37.648438 14.824219 C 37.441406 13.929688 36.640625 13.292969 35.722656 13.292969 L 11.90625 13.292969 C 10.988281 13.292969 10.191406 13.929688 9.984375 14.824219 Z M 4.042969 40.566406 "/>
<path style="fill:none;stroke-width:3;stroke-linecap:round;stroke-linejoin:round;stroke:rgb(12.941177%,12.941177%,12.941177%);stroke-opacity:1;stroke-miterlimit:4;" d="M 63.493937 233.415512 C 49.953563 233.415512 39.912855 220.791717 42.954231 207.584645 L 106.489831 -67.555747 C 108.697953 -77.138165 117.197142 -83.887521 126.987873 -83.887521 L 381.005282 -83.887521 C 390.796014 -83.887521 399.336865 -77.138165 401.544988 -67.555747 L 465.038924 207.584645 C 468.080301 220.791717 458.039593 233.415512 444.499219 233.415512 Z M 63.493937 233.415512 " transform="matrix(0.093759,0,0,0.093759,0,20.158175)"/>
<path style="fill-rule:nonzero;fill:url(#linear5);stroke-width:3;stroke-linecap:round;stroke-linejoin:round;stroke:rgb(12.941177%,12.941177%,12.941177%);stroke-opacity:1;stroke-miterlimit:4;" d="M 105.823228 148.840255 C 117.530443 148.840255 126.987873 155.922912 126.987873 164.713739 C 126.987873 173.462904 117.530443 180.587223 105.823228 180.587223 C 94.157675 180.587223 84.658582 173.462904 84.658582 164.713739 C 84.658582 155.922912 94.157675 148.840255 105.823228 148.840255 Z M 105.823228 148.840255 " transform="matrix(0.093759,0,0,0.093759,0,20.158175)"/>
<path style="fill-rule:nonzero;fill:url(#linear6);stroke-width:3;stroke-linecap:round;stroke-linejoin:round;stroke:rgb(12.941177%,12.941177%,12.941177%);stroke-opacity:1;stroke-miterlimit:4;" d="M 169.317164 148.840255 C 181.02438 148.840255 190.48181 155.922912 190.48181 164.713739 C 190.48181 173.462904 181.02438 180.587223 169.317164 180.587223 C 157.651612 180.587223 148.152519 173.462904 148.152519 164.713739 C 148.152519 155.922912 157.651612 148.840255 169.317164 148.840255 Z M 169.317164 148.840255 " transform="matrix(0.093759,0,0,0.093759,0,20.158175)"/>
<path style="fill-rule:nonzero;fill:url(#linear7);stroke-width:3;stroke-linecap:round;stroke-linejoin:round;stroke:rgb(12.941177%,12.941177%,12.941177%);stroke-opacity:1;stroke-miterlimit:4;" d="M 402.169928 148.840255 C 413.877143 148.840255 423.334574 155.922912 423.334574 164.713739 C 423.334574 173.462904 413.877143 180.587223 402.169928 180.587223 C 390.462713 180.587223 381.005282 173.462904 381.005282 164.713739 C 381.005282 155.922912 390.462713 148.840255 402.169928 148.840255 Z M 402.169928 148.840255 " transform="matrix(0.093759,0,0,0.093759,0,20.158175)"/>
<path style="fill-rule:nonzero;fill:rgb(100%,65.490196%,14.901961%);fill-opacity:1;stroke-width:3;stroke-linecap:round;stroke-linejoin:round;stroke:rgb(12.941177%,12.941177%,12.941177%);stroke-opacity:1;stroke-miterlimit:4;" d="M 232.852764 148.840255 C 244.518316 148.840255 254.017409 155.922912 254.017409 164.713739 C 254.017409 173.462904 244.518316 180.587223 232.852764 180.587223 C 221.145548 180.587223 211.646455 173.462904 211.646455 164.713739 C 211.646455 155.922912 221.145548 148.840255 232.852764 148.840255 Z M 232.852764 148.840255 " transform="matrix(0.093759,0,0,0.093759,0,20.158175)"/>
<path style="fill-rule:nonzero;fill:url(#linear8);stroke-width:3;stroke-linecap:butt;stroke-linejoin:miter;stroke:rgb(0%,0%,0%);stroke-opacity:1;stroke-miterlimit:4;" d="M 232.727776 -168.671091 C 232.727776 -155.380693 234.477609 -145.131672 238.22725 -137.132436 C 241.976892 -129.091537 248.101308 -123.425412 254.975651 -120.509023 C 268.724338 -114.759572 283.764569 -118.13425 297.596581 -120.425698 C 311.428593 -122.717146 323.885737 -123.967027 330.968394 -120.550686 C 334.551385 -118.800853 337.301123 -116.259429 339.717559 -110.718292 C 342.133995 -105.177154 343.842165 -96.511315 343.842165 -84.012509 L 359.840637 -84.012509 C 359.840637 -97.927846 358.049141 -108.635157 354.382825 -117.092683 C 350.716508 -125.550209 344.800407 -131.632961 337.967726 -134.924314 C 324.219039 -141.590344 308.887169 -138.548967 294.971832 -136.215857 C 281.014831 -133.882746 268.266049 -132.299564 261.183392 -135.299278 C 257.642063 -136.757472 255.058976 -138.923932 252.725866 -143.881791 C 250.392755 -148.839651 248.726248 -156.838887 248.726248 -168.671091 Z M 232.727776 -168.671091 " transform="matrix(0.093759,0,0,0.093759,0,20.158175)"/>
</g>
</svg>
